X:209
T:Rock 'N Row Me Over
M:C
L:1/4
Q:1/4=100
K:F
C|\
G>^F A>F|(Gd) CC|G>^F A>F|G2 zc|
BA GE|(FA) Cz|A2 G2|F2 EF|
G2 A2|G>E CE|G2 A2|G3 c|
BA GE|(FA) Cz|A2 BE|F3||
